; generated by Slic3r 1.3.0 on 2021-10-18 at 10:46:34

; external perimeters extrusion width = 0.44mm (2.90mm^3/s)
; perimeters extrusion width = 0.56mm (7.54mm^3/s)
; infill extrusion width = 0.50mm (8.93mm^3/s)
; solid infill extrusion width = 0.56mm (10.05mm^3/s)
; top infill extrusion width = 0.56mm (5.03mm^3/s)

M190 S50 ; set bed temperature and wait for it to be reached
M109 T0 S220
M206 Z0
G28
G29
G0 X5 Y10 F8000
M206 Z-2.85
G92 E0
G0 X5 Y10 Z0 F500
G0 X-5 Y20 Z5 E15 F500
G0 Y25 Z1

; Filament gcode

G21 ; set units to millimeters
G90 ; use absolute coordinates
M82 ; use absolute distances for extrusion
G92 E0
G1 Z0.250 F7200.000
G1 E-1.00000 F2400.00000
G92 E0
G1 X47.092 Y42.820 F7200.000
G1 E1.00000 F2400.00000
G1 F1440
G1 X48.839 Y41.382 E1.10494
G1 X50.223 Y40.803 E1.17455
G1 X101.929 Y25.974 E3.67003
G1 X102.864 Y25.779 E3.71437
G1 X104.159 Y25.609 E3.77493
G1 X105.000 Y25.554 E3.81405
G1 X115.000 Y25.554 E4.27798
G1 X115.841 Y25.609 E4.31709
G1 X117.135 Y25.779 E4.37765
G1 X118.071 Y25.974 E4.42200
G1 X169.777 Y40.803 E6.91748
G1 X171.808 Y41.799 E7.02242
G1 X173.371 Y43.435 E7.12737
G1 X174.272 Y45.510 E7.23231
G1 X174.446 Y47.000 E7.30192
G1 X174.446 Y173.000 E13.14739
G1 X174.049 Y175.227 E13.25234
G1 X172.908 Y177.180 E13.35728
G1 X171.161 Y178.618 E13.46223
G1 X169.777 Y179.197 E13.53183
G1 X118.071 Y194.026 E16.02732
G1 X117.136 Y194.221 E16.07163
G1 X115.841 Y194.391 E16.13221
G1 X115.000 Y194.446 E16.17133
G1 X105.000 Y194.446 E16.63526
G1 X104.159 Y194.391 E16.67438
G1 X102.864 Y194.221 E16.73494
G1 X101.929 Y194.026 E16.77928
G1 X50.223 Y179.197 E19.27476
G1 X48.192 Y178.201 E19.37970
G1 X46.629 Y176.565 E19.48465
G1 X45.728 Y174.490 E19.58959
G1 X45.554 Y173.000 E19.65920
G1 X45.554 Y47.000 E25.50467
G1 X45.951 Y44.773 E25.60962
G1 X47.062 Y42.872 E25.71178
G1 E24.71178 F2400.00000
G92 E0
G1 X109.967 Y178.352 F7200.000
G1 E1.00000 F2400.00000
G1 F720
G1 X110.940 Y178.470 E1.04546
G1 X111.826 Y178.837 E1.08997
G1 X112.583 Y179.417 E1.13421
G1 X113.163 Y180.174 E1.17844
G1 X113.528 Y181.055 E1.22268
G1 X113.653 Y182.000 E1.26692
G1 X113.528 Y182.945 E1.31115
G1 X113.176 Y183.796 E1.35385
G1 X112.588 Y184.579 E1.39930
G1 X111.826 Y185.163 E1.44382
G1 X110.976 Y185.515 E1.48651
G1 X110.006 Y185.653 E1.53197
G1 X109.055 Y185.528 E1.57648
G1 X108.174 Y185.163 E1.62072
G1 X107.417 Y184.583 E1.66496
G1 X106.837 Y183.826 E1.70919
G1 X106.472 Y182.945 E1.75343
G1 X106.347 Y182.000 E1.79766
G1 X106.472 Y181.055 E1.84190
G1 X106.837 Y180.174 E1.88614
G1 X107.417 Y179.417 E1.93037
G1 X108.174 Y178.837 E1.97461
G1 X109.055 Y178.472 E2.01884
G1 X109.908 Y178.360 E2.05875
G1 X109.969 Y178.802 F7200.000
G1 F720
G1 X110.825 Y178.905 E2.09876
G1 X111.601 Y179.227 E2.13771
G1 X112.264 Y179.736 E2.17650
G1 X112.773 Y180.399 E2.21528
G1 X113.093 Y181.171 E2.25406
G1 X113.202 Y182.000 E2.29285
G1 X113.093 Y182.829 E2.33163
G1 X112.785 Y183.573 E2.36898
G1 X112.267 Y184.262 E2.40899
G1 X111.601 Y184.773 E2.44794
G1 X110.857 Y185.081 E2.48529
G1 X110.004 Y185.203 E2.52530
G1 X109.171 Y185.093 E2.56425
G1 X108.399 Y184.773 E2.60303
G1 X107.736 Y184.264 E2.64182
G1 X107.227 Y183.601 E2.68060
G1 X106.907 Y182.829 E2.71938
G1 X106.798 Y182.000 E2.75817
G1 X106.907 Y181.171 E2.79695
G1 X107.227 Y180.399 E2.83573
G1 X107.736 Y179.736 E2.87452
G1 X108.399 Y179.227 E2.91330
G1 X109.171 Y178.907 E2.95209
G1 X109.910 Y178.810 E2.98665
G1 X109.972 Y179.252 F7200.000
G1 F720
G1 X110.711 Y179.341 E3.02120
G1 X111.376 Y179.617 E3.05460
G1 X111.946 Y180.054 E3.08793
G1 X112.383 Y180.624 E3.12126
G1 X112.658 Y181.288 E3.15459
G1 X112.752 Y182.000 E3.18792
G1 X112.658 Y182.712 E3.22125
G1 X112.394 Y183.350 E3.25326
G1 X111.947 Y183.945 E3.28781
G1 X111.376 Y184.383 E3.32120
G1 X110.739 Y184.647 E3.35321
G1 X110.001 Y184.752 E3.38776
G1 X109.288 Y184.658 E3.42116
G1 X108.624 Y184.383 E3.45449
G1 X108.054 Y183.946 E3.48782
G1 X107.617 Y183.376 E3.52115
G1 X107.342 Y182.712 E3.55448
G1 X107.248 Y182.000 E3.58781
G1 X107.342 Y181.288 E3.62114
G1 X107.617 Y180.624 E3.65448
G1 X108.054 Y180.054 E3.68781
G1 X108.624 Y179.617 E3.72114
G1 X109.288 Y179.342 E3.75447
G1 X109.912 Y179.259 E3.78369
G1 X109.972 Y179.252 F7200.000
G1 E2.78369 F2400.00000
G92 E0
G1 X110.000 Y41.653 F7200.000
G1 E1.00000 F2400.00000
G1 F720
G1 X109.055 Y41.528 E1.04424
G1 X108.174 Y41.163 E1.08847
G1 X107.417 Y40.583 E1.13271
G1 X106.837 Y39.826 E1.17694
G1 X106.472 Y38.945 E1.22118
G1 X106.347 Y38.000 E1.26541
G1 X106.472 Y37.055 E1.30965
G1 X106.837 Y36.174 E1.35389
G1 X107.417 Y35.417 E1.39812
G1 X108.174 Y34.837 E1.44236
G1 X109.055 Y34.472 E1.48659
G1 X109.967 Y34.352 E1.52929
G1 X110.940 Y34.470 E1.57475
G1 X111.826 Y34.837 E1.61926
G1 X112.583 Y35.417 E1.66350
G1 X113.163 Y36.174 E1.70773
G1 X113.528 Y37.055 E1.75197
G1 X113.653 Y38.000 E1.79620
G1 X113.528 Y38.945 E1.84044
G1 X113.163 Y39.826 E1.88468
G1 X112.583 Y40.583 E1.92891
G1 X111.826 Y41.163 E1.97315
G1 X110.945 Y41.528 E2.01738
G1 X110.059 Y41.645 E2.05884
G1 X110.000 Y41.202 F7200.000
G1 F720
G1 X109.171 Y41.093 E2.09762
G1 X108.399 Y40.773 E2.13640
G1 X107.736 Y40.264 E2.17519
G1 X107.227 Y39.601 E2.21397
G1 X106.907 Y38.829 E2.25275
G1 X106.798 Y38.000 E2.29154
G1 X106.907 Y37.171 E2.33032
G1 X107.227 Y36.399 E2.36910
G1 X107.736 Y35.736 E2.40789
G1 X108.399 Y35.227 E2.44667
G1 X109.171 Y34.907 E2.48545
G1 X109.969 Y34.802 E2.52281
G1 X110.825 Y34.905 E2.56281
G1 X111.601 Y35.227 E2.60176
G1 X112.264 Y35.736 E2.64055
G1 X112.773 Y36.399 E2.67933
G1 X113.093 Y37.171 E2.71811
G1 X113.202 Y38.000 E2.75690
G1 X113.093 Y38.829 E2.79568
G1 X112.773 Y39.601 E2.83446
G1 X112.264 Y40.264 E2.87325
G1 X111.601 Y40.773 E2.91203
G1 X110.829 Y41.093 E2.95081
G1 X110.059 Y41.195 E2.98681
G1 X110.000 Y40.752 F7200.000
G1 F720
G1 X109.288 Y40.658 E3.02014
G1 X108.624 Y40.383 E3.05348
G1 X108.054 Y39.946 E3.08681
G1 X107.617 Y39.376 E3.12014
G1 X107.342 Y38.712 E3.15347
G1 X107.248 Y38.000 E3.18680
G1 X107.342 Y37.288 E3.22013
G1 X107.617 Y36.624 E3.25346
G1 X108.054 Y36.054 E3.28679
G1 X108.624 Y35.617 E3.32013
G1 X109.288 Y35.342 E3.35346
G1 X109.972 Y35.252 E3.38546
G1 X110.711 Y35.341 E3.42002
G1 X111.376 Y35.617 E3.45341
G1 X111.946 Y36.054 E3.48674
G1 X112.383 Y36.624 E3.52007
G1 X112.658 Y37.288 E3.55340
G1 X112.752 Y38.000 E3.58673
G1 X112.658 Y38.712 E3.62006
G1 X112.383 Y39.376 E3.65340
G1 X111.946 Y39.946 E3.68673
G1 X111.376 Y40.383 E3.72006
G1 X110.712 Y40.658 E3.75339
G1 X110.059 Y40.744 E3.78394
G1 X110.000 Y40.752 F7200.000
G1 E2.78394 F2400.00000
G92 E0
G1 X101.143 Y48.143 F7200.000
G1 E1.00000 F2400.00000
G1 F1440
G1 X101.143 Y37.075 E1.51346
G1 X101.284 Y36.004 E1.56357
G1 X101.668 Y35.076 E1.61016
G1 X102.279 Y34.279 E1.65676
G1 X103.076 Y33.668 E1.70335
G1 X104.004 Y33.284 E1.74995
G1 X105.074 Y33.143 E1.80003
G1 X114.979 Y33.150 E2.25951
G1 X115.996 Y33.284 E2.30711
G1 X116.924 Y33.668 E2.35370
G1 X117.721 Y34.279 E2.40030
G1 X118.332 Y35.076 E2.44689
G1 X118.716 Y36.004 E2.49349
G1 X118.857 Y37.075 E2.54359
G1 X118.857 Y48.143 E3.05706
G1 X166.857 Y48.143 E5.28390
G1 X166.857 Y171.857 E11.02335
G1 X118.857 Y171.857 E13.25020
G1 X118.857 Y182.925 E13.76366
G1 X118.716 Y183.996 E13.81376
G1 X118.332 Y184.924 E13.86036
G1 X117.721 Y185.721 E13.90695
G1 X116.924 Y186.332 E13.95355
G1 X115.996 Y186.716 E14.00015
G1 X114.925 Y186.857 E14.05025
G1 X105.075 Y186.857 E14.50722
G1 X104.004 Y186.716 E14.55733
G1 X103.076 Y186.332 E14.60392
G1 X102.279 Y185.721 E14.65052
G1 X101.668 Y184.924 E14.69711
G1 X101.284 Y183.996 E14.74371
G1 X101.143 Y182.925 E14.79381
G1 X101.143 Y171.857 E15.30727
G1 X53.143 Y171.857 E17.53412
G1 X53.143 Y48.143 E23.27357
G1 X101.083 Y48.143 E25.49763
G1 X100.696 Y47.696 F7200.000
G1 F1440
G1 X100.696 Y37.046 E25.99175
G1 X100.849 Y35.888 E26.04593
G1 X101.278 Y34.851 E26.09798
G1 X101.961 Y33.961 E26.15003
G1 X102.851 Y33.278 E26.20208
G1 X103.888 Y32.849 E26.25412
G1 X105.045 Y32.696 E26.30830
G1 X115.008 Y32.703 E26.77049
G1 X116.112 Y32.849 E26.82216
G1 X117.149 Y33.278 E26.87421
G1 X118.039 Y33.961 E26.92626
G1 X118.722 Y34.851 E26.97831
G1 X119.151 Y35.888 E27.03036
G1 X119.304 Y37.046 E27.08454
G1 X119.304 Y47.696 E27.57865
G1 X167.304 Y47.696 E29.80550
G1 X167.304 Y172.304 E35.58636
G1 X119.304 Y172.304 E37.81321
G1 X119.304 Y182.954 E38.30732
G1 X119.151 Y184.112 E38.36151
G1 X118.722 Y185.149 E38.41356
G1 X118.039 Y186.039 E38.46560
G1 X117.149 Y186.722 E38.51765
G1 X116.112 Y187.151 E38.56970
G1 X114.954 Y187.304 E38.62389
G1 X105.046 Y187.304 E39.08358
G1 X103.888 Y187.151 E39.13776
G1 X102.851 Y186.722 E39.18981
G1 X101.961 Y186.039 E39.24186
G1 X101.278 Y185.149 E39.29391
G1 X100.849 Y184.112 E39.34596
G1 X100.696 Y182.954 E39.40014
G1 X100.696 Y172.304 E39.89425
G1 X52.696 Y172.304 E42.12110
G1 X52.696 Y47.696 E47.90196
G1 X100.636 Y47.696 E50.12603
G1 X100.250 Y47.250 F7200.000
G1 F720
G1 X100.250 Y37.016 E50.60079
G1 X100.414 Y35.771 E50.65906
G1 X100.888 Y34.626 E50.71656
G1 X101.643 Y33.643 E50.77406
G1 X102.626 Y32.888 E50.83156
G1 X103.771 Y32.414 E50.88906
G1 X105.016 Y32.250 E50.94732
G1 X115.037 Y32.257 E51.41223
G1 X116.229 Y32.414 E51.46798
G1 X117.374 Y32.888 E51.52548
G1 X118.357 Y33.643 E51.58298
G1 X119.112 Y34.626 E51.64048
G1 X119.586 Y35.771 E51.69798
G1 X119.750 Y37.016 E51.75625
G1 X119.750 Y47.250 E52.23101
G1 X167.750 Y47.250 E54.45786
G1 X167.750 Y172.750 E60.28014
G1 X119.750 Y172.750 E62.50699
G1 X119.750 Y182.984 E62.98175
G1 X119.586 Y184.229 E63.04002
G1 X119.112 Y185.374 E63.09752
G1 X118.357 Y186.357 E63.15502
G1 X117.374 Y187.112 E63.21252
G1 X116.229 Y187.586 E63.27002
G1 X114.984 Y187.750 E63.32829
G1 X105.016 Y187.750 E63.79069
G1 X103.771 Y187.586 E63.84896
G1 X102.626 Y187.112 E63.90646
G1 X101.643 Y186.357 E63.96396
G1 X100.888 Y185.374 E64.02146
G1 X100.414 Y184.229 E64.07896
G1 X100.250 Y182.984 E64.13723
G1 X100.250 Y172.750 E64.61200
G1 X52.250 Y172.750 E66.83884
G1 X52.250 Y47.250 E72.66112
G1 X100.190 Y47.250 E74.88518
G1 X100.618 Y47.094 F7200.000
G1 X101.510 Y48.050 F7200.000
G1 F1920
G1 X108.069 Y41.491 E75.31583
G1 X107.703 Y41.225 E75.33683
G1 X101.510 Y47.418 E75.74347
G1 X101.510 Y46.786 E75.77280
G1 X107.345 Y40.951 E76.15597
G1 X107.178 Y40.822 E76.16578
G1 X107.032 Y40.632 E76.17689
G1 X101.510 Y46.154 E76.53948
G1 X101.510 Y45.523 E76.56881
G1 X106.758 Y40.275 E76.91340
G1 X106.526 Y39.972 E76.93110
G1 X106.497 Y39.904 E76.93455
G1 X101.510 Y44.891 E77.26203
G1 X101.510 Y44.259 E77.29136
G1 X106.312 Y39.457 E77.60669
G1 X106.127 Y39.010 E77.62914
G1 X101.510 Y43.627 E77.93231
G1 X101.510 Y42.996 E77.96164
G1 X106.047 Y38.459 E78.25955
G1 X105.980 Y37.894 E78.28594
G1 X101.510 Y42.364 E78.57943
G1 X101.510 Y41.732 E78.60876
G1 X106.075 Y37.167 E78.90853
G1 X106.116 Y36.859 E78.92294
G1 X106.374 Y36.237 E78.95422
G1 E77.95422 F2400.00000
G92 E0
G1 X103.559 Y33.997 F7200.000
G1 E1.00000 F2400.00000
G1 F1920
G1 X103.222 Y34.137 E1.01692
G1 X102.519 Y34.677 E1.05810
G1 X101.979 Y35.380 E1.09928
G1 X101.839 Y35.717 E1.11620
G1 X103.717 Y33.840 E1.23948
G1 X104.200 Y33.640 E1.26374
G1 X104.602 Y33.587 E1.28256
G1 X101.587 Y36.602 E1.48053
G1 X101.510 Y37.183 E1.50776
G1 X101.510 Y37.310 E1.51365
G1 X105.310 Y33.510 E1.76314
G1 X105.941 Y33.511 E1.79245
G1 X101.510 Y37.942 E2.08340
G1 X101.510 Y38.573 E2.11273
G1 X106.572 Y33.511 E2.44513
G1 X107.204 Y33.512 E2.47444
G1 X101.510 Y39.205 E2.84830
G1 X101.510 Y39.837 E2.87763
G1 X107.835 Y33.512 E3.29294
G1 X108.466 Y33.513 E3.32225
G1 X101.510 Y40.469 E3.77901
G1 X101.510 Y41.100 E3.80834
G1 X106.216 Y36.394 E4.11734
G1 X106.368 Y36.028 E4.13578
G1 X107.020 Y35.178 E4.18551
G1 X107.870 Y34.526 E4.23524
G1 X108.237 Y34.374 E4.25368
G1 X109.098 Y33.513 E4.31021
G1 X109.729 Y33.513 E4.33952
G1 X109.167 Y34.075 E4.37643
G1 X109.892 Y33.982 E4.41040
G1 X110.360 Y33.514 E4.44112
G1 X110.991 Y33.514 E4.47043
G1 X110.456 Y34.050 E4.50560
G1 X111.010 Y34.127 E4.53158
G1 X111.623 Y33.515 E4.57180
G1 X112.254 Y33.515 E4.60112
G1 X111.457 Y34.312 E4.65346
G1 X111.904 Y34.497 E4.67591
G1 X112.885 Y33.516 E4.74037
G1 X113.517 Y33.516 E4.76968
G1 X112.275 Y34.758 E4.85122
G1 X112.632 Y35.032 E4.87214
G1 X114.148 Y33.517 E4.97167
G1 X114.779 Y33.517 E5.00098
G1 X112.951 Y35.345 E5.12104
G1 X113.225 Y35.703 E5.14196
G1 X115.366 Y33.562 E5.28257
G1 X115.925 Y33.635 E5.30871
G1 X113.491 Y36.069 E5.46850
G1 X113.676 Y36.515 E5.49095
G1 X116.378 Y33.813 E5.66836
G1 X116.815 Y34.008 E5.69058
G1 X113.861 Y36.962 E5.88455
G1 X113.884 Y37.017 E5.88731
G1 X113.948 Y37.507 E5.91024
G1 X117.173 Y34.282 E6.12196
G1 X117.481 Y34.519 E6.14000
G1 X117.519 Y34.568 E6.14288
G1 X114.022 Y38.065 E6.37249
G1 X113.930 Y38.788 E6.40634
G1 X117.793 Y34.925 E6.65997
G1 X118.021 Y35.222 E6.67735
G1 X118.052 Y35.298 E6.68115
G1 X113.654 Y39.696 E6.96996
G1 E5.96996 F2400.00000
G92 E0
G1 X53.510 Y48.668 F7200.000
G1 E1.00000 F2400.00000
G1 F1920
G1 X53.668 Y48.510 E1.01036
G1 X54.300 Y48.510 E1.03969
G1 X53.510 Y49.300 E1.09156
G1 X53.510 Y49.932 E1.12089
G1 X54.932 Y48.510 E1.21424
G1 X55.564 Y48.510 E1.24358
G1 X53.510 Y50.564 E1.37841
G1 X53.510 Y51.195 E1.40774
G1 X56.195 Y48.510 E1.58405
G1 X56.827 Y48.510 E1.61339
G1 X53.510 Y51.827 E1.83118
G1 X53.510 Y52.459 E1.86052
G1 X57.459 Y48.510 E2.11980
G1 X58.091 Y48.510 E2.14913
G1 X53.510 Y53.091 E2.44989
G1 X53.510 Y53.722 E2.47922
G1 X58.722 Y48.510 E2.82147
G1 X59.354 Y48.510 E2.85080
G1 X53.510 Y54.354 E3.23453
G1 X53.510 Y54.986 E3.26386
G1 X59.986 Y48.510 E3.68907
G1 X60.618 Y48.510 E3.71841
G1 X53.510 Y55.618 E4.18510
G1 X53.510 Y56.249 E4.21443
G1 X61.249 Y48.510 E4.72261
G1 X61.881 Y48.510 E4.75194
G1 X53.510 Y56.881 E5.30160
G1 X53.510 Y57.513 E5.33093
G1 X62.513 Y48.510 E5.92207
G1 X63.145 Y48.510 E5.95141
G1 X53.510 Y58.145 E6.58403
G1 X53.510 Y58.776 E6.61336
G1 X63.776 Y48.510 E7.28747
G1 X64.408 Y48.510 E7.31680
G1 X53.510 Y59.408 E8.03239
G1 X53.510 Y60.040 E8.06172
G1 X65.040 Y48.510 E8.81880
G1 X65.672 Y48.510 E8.84813
G1 X53.510 Y60.672 E9.64668
G1 X53.510 Y61.303 E9.67602
G1 X66.303 Y48.510 E10.51605
G1 X66.935 Y48.510 E10.54539
G1 X53.510 Y61.935 E11.42691
G1 X53.510 Y62.567 E11.45624
G1 X67.567 Y48.510 E12.37924
G1 X68.199 Y48.510 E12.40858
G1 X53.510 Y63.199 E13.37306
G1 X53.510 Y63.830 E13.40239
G1 X68.830 Y48.510 E14.40836
G1 X69.462 Y48.510 E14.43770
G1 X53.510 Y64.462 E15.48515
G1 X53.510 Y65.094 E15.51448
G1 X70.094 Y48.510 E16.60341
G1 X70.726 Y48.510 E16.63275
G1 X53.510 Y65.726 E17.76316
G1 X53.510 Y66.357 E17.79249
G1 X71.357 Y48.510 E18.96439
G1 X71.989 Y48.510 E18.99373
G1 X53.510 Y66.989 E20.20711
G1 X53.510 Y67.621 E20.23644
G1 X72.621 Y48.510 E21.49131
G1 X73.253 Y48.510 E21.52064
G1 X53.510 Y68.253 E22.81699
G1 X53.510 Y68.884 E22.84632
G1 X73.884 Y48.510 E24.18415
G1 X74.516 Y48.510 E24.21348
G1 X53.510 Y69.516 E25.59279
G1 X53.510 Y70.148 E25.62213
G1 X75.148 Y48.510 E27.04292
G1 X75.780 Y48.510 E27.07225
G1 X53.510 Y70.780 E28.53453
G1 X53.510 Y71.411 E28.56386
G1 X76.411 Y48.510 E30.06763
G1 X77.043 Y48.510 E30.09696
G1 X53.510 Y72.043 E31.64220
G1 X53.510 Y72.675 E31.67153
G1 X77.675 Y48.510 E33.25826
G1 X78.307 Y48.510 E33.28759
G1 X53.510 Y73.307 E34.91580
G1 X53.510 Y73.938 E34.94513
G1 X78.938 Y48.510 E36.61483
G1 X79.570 Y48.510 E36.64416
G1 X53.510 Y74.570 E38.35533
G1 X53.510 Y75.202 E38.38467
G1 X80.202 Y48.510 E40.13732
G1 X80.834 Y48.510 E40.16666
G1 X53.510 Y75.834 E41.96080
G1 X53.510 Y76.465 E41.99013
G1 X81.465 Y48.510 E43.82575
G1 X82.097 Y48.510 E43.85508
G1 X53.510 Y77.097 E45.73219
G1 X53.510 Y77.729 E45.76152
G1 X82.729 Y48.510 E47.68011
G1 X83.361 Y48.510 E47.70944
G1 X53.510 Y78.361 E49.66951
G1 X53.510 Y78.992 E49.69885
G1 X83.992 Y48.510 E51.70040
G1 X84.624 Y48.510 E51.72973
G1 X53.510 Y79.624 E53.77277
G1 X53.510 Y80.256 E53.80210
G1 X85.256 Y48.510 E55.88662
G1 X85.888 Y48.510 E55.91595
G1 X53.510 Y80.888 E58.04195
G1 X53.510 Y81.519 E58.07128
G1 X86.519 Y48.510 E60.23877
G1 X87.151 Y48.510 E60.26810
G1 X53.510 Y82.151 E62.47707
G1 X53.510 Y82.783 E62.50640
G1 X87.783 Y48.510 E64.75685
G1 X88.415 Y48.510 E64.78618
G1 X53.510 Y83.415 E67.07812
