; generated by Slic3r 1.3.0 on 2021-10-20 at 08:25:20

; external perimeters extrusion width = 0.44mm (2.90mm^3/s)
; perimeters extrusion width = 0.56mm (7.54mm^3/s)
; infill extrusion width = 0.50mm (8.93mm^3/s)
; solid infill extrusion width = 0.56mm (10.05mm^3/s)
; top infill extrusion width = 0.56mm (5.03mm^3/s)

M190 S50 ; set bed temperature and wait for it to be reached
M109 T0 S220
M206 Z0
G28
G29
G0 X5 Y10 F8000
M206 Z-2.7
G92 E0
G0 X5 Y10 Z0 F500
G0 X-5 Y20 Z5 E15 F500
G0 Y25 Z1

; Filament gcode

G21 ; set units to millimeters
G90 ; use absolute coordinates
M82 ; use absolute distances for extrusion
G92 E0
G1 Z0.250 F7200.000
G1 E-1.00000 F2400.00000
G92 E0
G1 X64.352 Y43.120 F7200.000
G1 E1.00000 F2400.00000
G1 F1440
G1 X66.009 Y41.581 E1.10494
G1 X68.096 Y40.708 E1.20989
G1 X69.500 Y40.554 E1.27542
G1 X185.500 Y40.554 E6.65696
G1 X187.727 Y40.951 E6.76191
G1 X189.680 Y42.092 E6.86685
G1 X191.118 Y43.838 E6.97180
G1 X191.946 Y47.000 E7.12342
G1 X191.946 Y173.000 E12.96889
G1 X191.549 Y175.227 E13.07384
G1 X190.408 Y177.180 E13.17878
G1 X188.661 Y178.618 E13.28373
G1 X185.500 Y179.446 E13.43535
G1 X34.500 Y179.446 E20.44064
G1 X32.273 Y179.049 E20.54558
G1 X30.320 Y177.908 E20.65053
G1 X28.882 Y176.162 E20.75547
G1 X28.054 Y173.000 E20.90710
G1 X28.054 Y163.000 E21.37102
G1 X28.328 Y161.138 E21.45835
G1 X63.328 Y45.138 E27.07952
G1 X64.325 Y43.174 E27.18168
G1 E26.18168 F2400.00000
G92 E0
G1 X74.091 Y166.774 F7200.000
G1 E1.00000 F2400.00000
G1 F720
G1 X74.651 Y167.006 E1.02813
G1 X75.128 Y167.372 E1.05602
G1 X75.494 Y167.849 E1.08390
G1 X75.724 Y168.404 E1.11179
G1 X75.802 Y169.000 E1.13967
G1 X75.724 Y169.596 E1.16755
G1 X75.494 Y170.151 E1.19544
G1 X75.128 Y170.628 E1.22332
G1 X74.651 Y170.994 E1.25120
G1 X74.096 Y171.224 E1.27909
G1 X73.500 Y171.302 E1.30697
G1 X72.904 Y171.224 E1.33485
G1 X72.349 Y170.994 E1.36274
G1 X71.872 Y170.628 E1.39062
G1 X71.506 Y170.151 E1.41851
G1 X71.276 Y169.596 E1.44639
G1 X71.198 Y169.000 E1.47427
G1 X71.276 Y168.404 E1.50216
G1 X71.494 Y167.878 E1.52858
G1 X71.868 Y167.375 E1.55764
G1 X72.349 Y167.006 E1.58577
G1 X72.904 Y166.776 E1.61365
G1 X73.469 Y166.702 E1.64008
G1 X74.031 Y166.767 E1.66635
G1 X73.978 Y167.210 F7200.000
G1 F720
G1 X74.426 Y167.396 E1.68887
G1 X74.810 Y167.690 E1.71130
G1 X75.104 Y168.074 E1.73373
G1 X75.289 Y168.521 E1.75616
G1 X75.352 Y169.000 E1.77860
G1 X75.289 Y169.479 E1.80103
G1 X75.104 Y169.926 E1.82346
G1 X74.810 Y170.310 E1.84589
G1 X74.426 Y170.604 E1.86832
G1 X73.979 Y170.789 E1.89075
G1 X73.500 Y170.852 E1.91318
G1 X73.021 Y170.789 E1.93561
G1 X72.574 Y170.604 E1.95805
G1 X72.190 Y170.310 E1.98048
G1 X71.896 Y169.926 E2.00291
G1 X71.711 Y169.479 E2.02534
G1 X71.648 Y169.000 E2.04777
G1 X71.711 Y168.521 E2.07020
G1 X71.885 Y168.100 E2.09133
G1 X72.189 Y167.692 E2.11494
G1 X72.574 Y167.396 E2.13746
G1 X73.021 Y167.211 E2.15989
G1 X73.472 Y167.152 E2.18102
G1 X73.918 Y167.203 E2.20184
G1 X73.978 Y167.210 F7200.000
G1 E1.20184 F2400.00000
G92 E0
G1 X70.643 Y169.796 F7200.000
G1 E1.00000 F2400.00000
G1 F720
G1 X70.858 Y169.754 E1.01020
G1 X71.116 Y170.376 E1.04147
G1 X71.554 Y170.946 E1.07480
G1 X72.124 Y171.384 E1.10814
G1 X72.746 Y171.642 E1.13941
G1 X72.704 Y171.857 E1.14961
G1 X70.643 Y171.857 E1.24522
G1 X70.643 Y169.856 E1.33804
G1 E0.33804 F2400.00000
G92 E0
G1 X71.054 Y134.696 F7200.000
G1 E1.00000 F2400.00000
G1 F1440
G1 X71.054 Y121.304 E1.62132
G1 X79.446 Y121.304 E2.01068
G1 X79.446 Y134.696 E2.63200
G1 X71.114 Y134.696 E3.01858
G1 X71.500 Y134.250 F7200.000
G1 F720
G1 X71.500 Y121.750 E3.59849
G1 X79.000 Y121.750 E3.94643
G1 X79.000 Y134.250 E4.52634
G1 X71.560 Y134.250 E4.87150
G1 X71.123 Y134.385 F7200.000
G1 E3.87150 F2400.00000
G92 E0
G1 X71.054 Y116.696 F7200.000
G1 E1.00000 F2400.00000
G1 F1440
G1 X71.054 Y103.304 E1.62132
G1 X79.446 Y103.304 E2.01068
G1 X79.446 Y116.696 E2.63200
G1 X71.114 Y116.696 E3.01858
G1 X71.500 Y116.250 F7200.000
G1 F720
G1 X71.500 Y103.750 E3.59849
G1 X79.000 Y103.750 E3.94643
G1 X79.000 Y116.250 E4.52634
G1 X71.560 Y116.250 E4.87150
G1 X71.123 Y116.385 F7200.000
G1 E3.87150 F2400.00000
G92 E0
G1 X71.054 Y98.696 F7200.000
G1 E1.00000 F2400.00000
G1 F1440
G1 X71.054 Y85.304 E1.62132
G1 X79.446 Y85.304 E2.01068
G1 X79.446 Y98.696 E2.63200
G1 X71.114 Y98.696 E3.01858
G1 X71.500 Y98.250 F7200.000
G1 F720
G1 X71.500 Y85.750 E3.59849
G1 X79.000 Y85.750 E3.94643
G1 X79.000 Y98.250 E4.52634
G1 X71.560 Y98.250 E4.87150
G1 X71.123 Y98.385 F7200.000
G1 E3.87150 F2400.00000
G92 E0
G1 X71.054 Y80.196 F7200.000
G1 E1.00000 F2400.00000
G1 F1440
G1 X71.054 Y66.804 E1.62132
G1 X79.446 Y66.804 E2.01068
G1 X79.446 Y80.196 E2.63200
G1 X71.114 Y80.196 E3.01858
G1 X71.500 Y79.750 F7200.000
G1 F720
G1 X71.500 Y67.250 E3.59849
G1 X79.000 Y67.250 E3.94643
G1 X79.000 Y79.750 E4.52634
G1 X71.560 Y79.750 E4.87150
G1 X71.123 Y79.885 F7200.000
G1 E3.87150 F2400.00000
G92 E0
G1 X73.500 Y53.302 F7200.000
G1 E1.00000 F2400.00000
G1 F720
G1 X72.904 Y53.224 E1.02788
G1 X72.349 Y52.994 E1.05577
G1 X71.872 Y52.628 E1.08365
G1 X71.506 Y52.151 E1.11154
G1 X71.288 Y51.625 E1.13796
G1 X71.197 Y51.005 E1.16701
G1 X71.276 Y50.404 E1.19515
G1 X71.506 Y49.849 E1.22303
G1 X71.872 Y49.372 E1.25092
G1 X72.349 Y49.006 E1.27880
G1 X72.904 Y48.776 E1.30668
G1 X73.469 Y48.702 E1.33311
G1 X74.091 Y48.774 E1.36216
G1 X74.651 Y49.006 E1.39030
G1 X75.128 Y49.372 E1.41818
G1 X75.494 Y49.849 E1.44606
G1 X75.712 Y50.375 E1.47248
G1 X75.803 Y50.995 E1.50154
G1 X75.724 Y51.596 E1.52968
G1 X75.494 Y52.151 E1.55756
G1 X75.128 Y52.628 E1.58544
G1 X74.651 Y52.994 E1.61333
G1 X74.096 Y53.224 E1.64121
G1 X73.559 Y53.295 E1.66631
G1 X73.500 Y52.852 F7200.000
G1 F720
G1 X73.021 Y52.789 E1.68874
G1 X72.574 Y52.604 E1.71117
G1 X72.190 Y52.310 E1.73361
G1 X71.896 Y51.926 E1.75604
G1 X71.722 Y51.505 E1.77717
G1 X71.648 Y51.002 E1.80077
G1 X71.711 Y50.521 E1.82329
G1 X71.896 Y50.074 E1.84572
G1 X72.190 Y49.690 E1.86815
G1 X72.574 Y49.396 E1.89059
G1 X73.021 Y49.211 E1.91302
G1 X73.472 Y49.151 E1.93415
G1 X73.978 Y49.210 E1.95775
G1 X74.426 Y49.396 E1.98027
G1 X74.810 Y49.690 E2.00270
G1 X75.104 Y50.074 E2.02514
G1 X75.278 Y50.495 E2.04627
G1 X75.352 Y50.998 E2.06987
G1 X75.289 Y51.479 E2.09239
G1 X75.104 Y51.926 E2.11482
G1 X74.810 Y52.310 E2.13725
G1 X74.426 Y52.604 E2.15968
G1 X73.979 Y52.789 E2.18212
G1 X73.559 Y52.844 E2.20176
G1 X73.500 Y52.852 F7200.000
G1 E1.20176 F2400.00000
G92 E0
G1 X70.643 Y50.204 F7200.000
G1 E1.00000 F2400.00000
G1 F720
G1 X70.643 Y48.143 E1.09561
G1 X72.704 Y48.143 E1.19122
G1 X72.747 Y48.358 E1.20142
G1 X72.124 Y48.616 E1.23269
G1 X71.554 Y49.054 E1.26603
G1 X71.116 Y49.624 E1.29936
G1 X70.858 Y50.246 E1.33063
G1 X70.702 Y50.215 E1.33805
G1 E0.33805 F2400.00000
G92 E0
G1 X79.893 Y66.357 F7200.000
G1 E1.00000 F2400.00000
G1 F1440
G1 X70.643 Y66.357 E1.42913
G1 X70.643 Y51.796 E2.10465
G1 X70.858 Y51.754 E2.11485
G1 X71.116 Y52.376 E2.14612
G1 X71.554 Y52.946 E2.17945
G1 X72.124 Y53.384 E2.21279
G1 X72.788 Y53.659 E2.24612
G1 X73.500 Y53.753 E2.27946
G1 X74.212 Y53.659 E2.31280
G1 X74.876 Y53.384 E2.34613
G1 X75.446 Y52.946 E2.37947
G1 X75.884 Y52.376 E2.41280
G1 X76.159 Y51.712 E2.44614
G1 X76.254 Y50.991 E2.47989
G1 X76.145 Y50.255 E2.51440
G1 X75.884 Y49.624 E2.54611
G1 X75.446 Y49.054 E2.57945
G1 X74.876 Y48.616 E2.61278
G1 X74.253 Y48.358 E2.64406
G1 X74.296 Y48.143 E2.65425
G1 X180.704 Y48.143 E7.59077
G1 X180.746 Y48.358 E7.60096
G1 X180.124 Y48.616 E7.63223
G1 X179.554 Y49.054 E7.66557
G1 X179.116 Y49.624 E7.69891
G1 X178.841 Y50.288 E7.73224
G1 X178.746 Y51.009 E7.76599
G1 X178.855 Y51.745 E7.80050
G1 X179.116 Y52.376 E7.83221
G1 X179.559 Y52.953 E7.86596
G1 X180.156 Y53.397 E7.90047
G1 X180.788 Y53.659 E7.93218
G1 X181.500 Y53.753 E7.96552
G1 X182.212 Y53.659 E7.99885
G1 X182.876 Y53.384 E8.03219
G1 X183.446 Y52.946 E8.06553
G1 X183.884 Y52.376 E8.09886
G1 X184.142 Y51.753 E8.13014
G1 X184.357 Y51.796 E8.14033
G1 X184.357 Y168.204 E13.54077
G1 X184.142 Y168.247 E13.55097
G1 X183.884 Y167.624 E13.58224
G1 X183.446 Y167.054 E13.61558
G1 X182.876 Y166.616 E13.64892
G1 X182.204 Y166.338 E13.68266
G1 X181.465 Y166.252 E13.71717
G1 X180.788 Y166.341 E13.74889
G1 X180.124 Y166.616 E13.78222
G1 X179.554 Y167.054 E13.81556
G1 X179.116 Y167.624 E13.84889
G1 X178.841 Y168.288 E13.88223
G1 X178.747 Y169.000 E13.91557
G1 X178.841 Y169.712 E13.94890
G1 X179.116 Y170.376 E13.98224
G1 X179.554 Y170.946 E14.01557
G1 X180.124 Y171.384 E14.04891
G1 X180.746 Y171.642 E14.08018
G1 X180.704 Y171.857 E14.09038
G1 X74.296 Y171.857 E19.02689
G1 X74.254 Y171.642 E19.03708
G1 X74.876 Y171.384 E19.06836
G1 X75.446 Y170.946 E19.10169
G1 X75.884 Y170.376 E19.13503
G1 X76.159 Y169.712 E19.16836
G1 X76.253 Y169.000 E19.20170
G1 X76.159 Y168.288 E19.23503
G1 X75.884 Y167.624 E19.26837
G1 X75.446 Y167.054 E19.30171
G1 X74.876 Y166.616 E19.33504
G1 X74.204 Y166.338 E19.36879
G1 X73.465 Y166.252 E19.40330
G1 X72.788 Y166.341 E19.43501
G1 X72.124 Y166.616 E19.46835
G1 X71.547 Y167.059 E19.50210
G1 X71.103 Y167.656 E19.53661
G1 X70.858 Y168.246 E19.56625
G1 X70.643 Y168.204 E19.57645
G1 X70.643 Y135.143 E21.11023
G1 X79.893 Y135.143 E21.53936
G1 X79.893 Y120.857 E22.20210
G1 X70.643 Y120.857 E22.63123
G1 X70.643 Y117.143 E22.80356
G1 X79.893 Y117.143 E23.23270
G1 X79.893 Y102.857 E23.89543
G1 X70.643 Y102.857 E24.32457
G1 X70.643 Y99.143 E24.49690
G1 X79.893 Y99.143 E24.92603
G1 X79.893 Y84.857 E25.58877
G1 X70.643 Y84.857 E26.01790
G1 X70.643 Y80.643 E26.21342
G1 X79.893 Y80.643 E26.64256
G1 X79.893 Y66.417 E27.30251
G1 E26.30251 F2400.00000
G92 E0
G1 X179.288 Y51.625 F7200.000
G1 E1.00000 F2400.00000
G1 F720
G1 X179.197 Y51.005 E1.02906
G1 X179.276 Y50.404 E1.05719
G1 X179.506 Y49.849 E1.08507
G1 X179.872 Y49.372 E1.11296
G1 X180.349 Y49.006 E1.14084
G1 X180.904 Y48.776 E1.16872
G1 X181.469 Y48.702 E1.19515
G1 X182.091 Y48.774 E1.22420
G1 X182.651 Y49.006 E1.25234
G1 X183.128 Y49.372 E1.28022
G1 X183.494 Y49.849 E1.30811
G1 X183.712 Y50.375 E1.33453
G1 X183.803 Y50.995 E1.36359
G1 X183.724 Y51.596 E1.39172
G1 X183.494 Y52.151 E1.41960
G1 X183.128 Y52.628 E1.44749
G1 X182.651 Y52.994 E1.47537
G1 X182.096 Y53.224 E1.50325
G1 X181.500 Y53.302 E1.53114
G1 X180.904 Y53.224 E1.55902
G1 X180.378 Y53.006 E1.58544
G1 X179.875 Y52.632 E1.61450
G1 X179.506 Y52.151 E1.64264
G1 X179.311 Y51.680 E1.66627
G1 X179.722 Y51.505 F7200.000
G1 F720
G1 X179.648 Y51.002 E1.68988
G1 X179.711 Y50.521 E1.71240
G1 X179.896 Y50.074 E1.73483
G1 X180.190 Y49.690 E1.75726
G1 X180.574 Y49.396 E1.77969
G1 X181.021 Y49.211 E1.80212
G1 X181.472 Y49.151 E1.82325
G1 X181.978 Y49.210 E1.84686
G1 X182.426 Y49.396 E1.86938
G1 X182.810 Y49.690 E1.89181
G1 X183.104 Y50.074 E1.91424
G1 X183.278 Y50.495 E1.93537
G1 X183.352 Y50.998 E1.95898
G1 X183.289 Y51.479 E1.98150
G1 X183.104 Y51.926 E2.00393
G1 X182.810 Y52.310 E2.02636
G1 X182.426 Y52.604 E2.04879
G1 X181.979 Y52.789 E2.07122
G1 X181.500 Y52.852 E2.09365
G1 X181.021 Y52.789 E2.11609
G1 X180.600 Y52.615 E2.13721
G1 X180.192 Y52.311 E2.16082
G1 X179.896 Y51.926 E2.18334
G1 X179.745 Y51.561 E2.20169
G1 X179.722 Y51.505 F7200.000
G1 E1.20169 F2400.00000
G92 E0
G1 X182.296 Y48.143 F7200.000
G1 E1.00000 F2400.00000
G1 F720
G1 X184.357 Y48.143 E1.09561
G1 X184.357 Y50.204 E1.19122
G1 X184.142 Y50.246 E1.20142
G1 X183.884 Y49.624 E1.23269
G1 X183.446 Y49.054 E1.26603
G1 X182.876 Y48.616 E1.29937
G1 X182.253 Y48.358 E1.33064
G1 X182.285 Y48.202 E1.33805
G1 E0.33805 F2400.00000
G92 E0
G1 X181.469 Y166.702 F7200.000
G1 E1.00000 F2400.00000
G1 F720
G1 X182.091 Y166.774 E1.02906
G1 X182.651 Y167.006 E1.05719
G1 X183.128 Y167.372 E1.08507
G1 X183.494 Y167.849 E1.11296
G1 X183.724 Y168.404 E1.14084
G1 X183.802 Y169.000 E1.16872
G1 X183.724 Y169.596 E1.19661
G1 X183.494 Y170.151 E1.22449
G1 X183.128 Y170.628 E1.25238
G1 X182.651 Y170.994 E1.28026
G1 X182.096 Y171.224 E1.30814
G1 X181.500 Y171.302 E1.33603
G1 X180.904 Y171.224 E1.36391
G1 X180.349 Y170.994 E1.39179
G1 X179.872 Y170.628 E1.41968
G1 X179.506 Y170.151 E1.44756
G1 X179.276 Y169.596 E1.47545
G1 X179.198 Y169.000 E1.50333
G1 X179.276 Y168.404 E1.53121
G1 X179.506 Y167.849 E1.55909
G1 X179.872 Y167.372 E1.58698
G1 X180.349 Y167.006 E1.61486
G1 X180.904 Y166.776 E1.64275
G1 X181.409 Y166.710 E1.66639
G1 X181.472 Y167.152 F7200.000
G1 F720
G1 X181.978 Y167.210 E1.68999
G1 X182.426 Y167.396 E1.71251
G1 X182.810 Y167.690 E1.73494
G1 X183.104 Y168.074 E1.75737
G1 X183.289 Y168.521 E1.77980
G1 X183.352 Y169.000 E1.80224
G1 X183.289 Y169.479 E1.82467
G1 X183.104 Y169.926 E1.84710
G1 X182.810 Y170.310 E1.86953
G1 X182.426 Y170.604 E1.89196
G1 X181.979 Y170.789 E1.91439
G1 X181.500 Y170.852 E1.93682
G1 X181.021 Y170.789 E1.95926
G1 X180.574 Y170.604 E1.98169
G1 X180.190 Y170.310 E2.00412
G1 X179.896 Y169.926 E2.02655
G1 X179.711 Y169.479 E2.04898
G1 X179.648 Y169.000 E2.07141
G1 X179.711 Y168.521 E2.09384
G1 X179.896 Y168.074 E2.11627
G1 X180.190 Y167.690 E2.13871
G1 X180.574 Y167.396 E2.16114
G1 X181.021 Y167.211 E2.18357
G1 X181.413 Y167.159 E2.20192
G1 X181.472 Y167.152 F7200.000
G1 E1.20192 F2400.00000
G92 E0
G1 X184.357 Y169.796 F7200.000
G1 E1.00000 F2400.00000
G1 F720
G1 X184.357 Y171.857 E1.09561
G1 X182.296 Y171.857 E1.19122
G1 X182.254 Y171.642 E1.20142
G1 X182.876 Y171.384 E1.23269
G1 X183.446 Y170.946 E1.26603
G1 X183.884 Y170.376 E1.29936
G1 X184.142 Y169.753 E1.33064
G1 X184.298 Y169.785 E1.33805
G1 E0.33805 F2400.00000
G92 E0
G1 X184.804 Y172.304 F7200.000
G1 E1.00000 F2400.00000
G1 F1440
G1 X70.196 Y172.304 E6.31694
G1 X70.196 Y47.696 E12.09780
G1 X184.804 Y47.696 E17.41473
G1 X184.804 Y172.244 E23.19281
G1 X185.250 Y172.750 F7200.000
G1 F720
G1 X69.750 Y172.750 E28.55116
G1 X69.750 Y47.250 E34.37344
G1 X185.250 Y47.250 E39.73179
G1 X185.250 Y172.690 E45.55129
G1 X184.865 Y172.641 F7200.000
G1 E44.55129 F2400.00000
G92 E0
G1 X184.134 Y170.503 F7200.000
G1 E1.00000 F2400.00000
G1 F960
G1 X183.824 Y171.324 E1.05163
G1 X183.003 Y171.634 E1.10325
G1 E0.10325 F2400.00000
G92 E0
G1 X179.923 Y171.634 F7200.000
G1 E1.00000 F2400.00000
G1 F960
G1 X179.665 Y171.376 E1.00422
G1 F960
G1 X179.536 Y171.247 E1.00500
G1 X178.920 Y171.490 F7200.000
G1 F1920
G1 X179.079 Y171.331 E1.01547
G1 X178.950 Y171.202 E1.02396
G1 X179.163 Y170.989 E1.03796
G1 X179.000 Y170.777 E1.05037
G1 X178.287 Y171.490 E1.09727
G1 X177.655 Y171.490 E1.12667
G1 X178.752 Y170.393 E1.19880
G1 X178.566 Y169.946 E1.22130
G1 X177.022 Y171.490 E1.32284
G1 X176.389 Y171.490 E1.35224
G1 X178.444 Y169.435 E1.48732
G1 X178.376 Y168.921 E1.51143
G1 X178.384 Y168.863 E1.51416
G1 X175.757 Y171.490 E1.68687
G1 X175.124 Y171.490 E1.71628
G1 X178.480 Y168.134 E1.93688
G1 X178.805 Y167.320 E1.97767
G1 X179.278 Y166.704 E2.01376
G1 X174.492 Y171.490 E2.32843
G1 X173.859 Y171.490 E2.35783
G1 X183.990 Y161.359 E3.02389
G1 X183.990 Y160.727 E3.05329
G1 X173.227 Y171.490 E3.76093
G1 X172.594 Y171.490 E3.79034
G1 X183.990 Y160.094 E4.53957
G1 X183.990 Y159.462 E4.56898
G1 X171.962 Y171.490 E5.35979
G1 X171.329 Y171.490 E5.38920
G1 X183.990 Y158.829 E6.22161
G1 X183.990 Y158.196 E6.25101
G1 X170.696 Y171.490 E7.12501
G1 X170.064 Y171.490 E7.15441
G1 X183.990 Y157.564 E8.06999
G1 X183.990 Y156.931 E8.09940
G1 X169.431 Y171.490 E9.05657
G1 X168.799 Y171.490 E9.08598
G1 X183.990 Y156.299 E10.08473
G1 X183.990 Y155.666 E10.11414
G1 X168.166 Y171.490 E11.15449
G1 X167.534 Y171.490 E11.18389
G1 X183.990 Y155.034 E12.26583
G1 X183.990 Y154.401 E12.29523
G1 X166.901 Y171.490 E13.41876
G1 X166.269 Y171.490 E13.44816
G1 X183.990 Y153.769 E14.61327
G1 X183.990 Y153.136 E14.64268
G1 X165.636 Y171.490 E15.84938
G1 X165.003 Y171.490 E15.87878
G1 X183.990 Y152.503 E17.12707
G1 X183.990 Y151.871 E17.15648
G1 X164.371 Y171.490 E18.44635
G1 X163.738 Y171.490 E18.47576
G1 X183.990 Y151.238 E19.80722
G1 X183.990 Y150.606 E19.83663
G1 X163.106 Y171.490 E21.20968
G1 X162.473 Y171.490 E21.23908
G1 X183.990 Y149.973 E22.65372
G1 X183.990 Y149.341 E22.68313
G1 X161.841 Y171.490 E24.13936
G1 X161.208 Y171.490 E24.16876
G1 X183.990 Y148.708 E25.66658
G1 X183.990 Y148.076 E25.69598
G1 X160.576 Y171.490 E27.23539
G1 X159.943 Y171.490 E27.26479
